assets/img/icons/duotone-icons/Home/Weight#1.svg

<?xml version="1.0" encoding="UTF-8"?>
<svg width="24px" height="24px" viewBox="0 0 24 24" version="1.1" xmlns="http://www.w3.org/2000/svg" xmlns:xlink="http://www.w3.org/1999/xlink">
    <!-- Generator: Sketch 52.2 (67145) - http://www.bohemiancoding.com/sketch -->
    <title>Stockholm-icons / Home / Weight#1</title>
    <desc>Created with Sketch.</desc>
    <g id="Stockholm-icons-/-Home-/-Weight#1" stroke="none" stroke-width="1" fill="none" fill-rule="evenodd">
        <rect id="bound" x="0" y="0" width="24" height="24"></rect>
        <path d="M8.34232922,9 L15.6576708,9 C17.0342737,9 18.234223,9.93689212 18.5680983,11.2723931 L21,21 L3,21 L5.43190172,11.2723931 C5.76577697,9.93689212 6.96572629,9 8.34232922,9 Z M11.264,18 L12.608,18 L12.608,12.336 L11.376,12.336 L9.512,13.704 L10.208,14.656 L11.264,13.84 L11.264,18 Z" id="Combined-Shape" fill="#335EEA"></path>
        <circle id="Oval" fill="#335EEA" opacity="0.3" cx="12" cy="5.5" r="2.5"></circle>
    </g>
</svg>

<svg width="24" height="24" viewBox="0 0 24 24" xmlns="http://www.w3.org/2000/svg"><g fill="none" fill-rule="evenodd"><path d="M0 0h24v24H0z"/><path d="M8.342 9h7.316a3 3 0 012.91 2.272L21 21H3l2.432-9.728A3 3 0 018.342 9zm2.922 9h1.344v-5.664h-1.232l-1.864 1.368.696.952 1.056-.816V18z" fill="#335EEA"/><circle fill="#335EEA" opacity=".3" cx="12" cy="5.5" r="2.5"/></g></svg>
